assets/fc/fc-ratings.svg

<svg xmlns="http://www.w3.org/2000/svg" width="100%" height="100%" viewBox="0 0 48 48"><path fill="#42A5F5" d="M36 44H8V8h20l8 8z"/><path fill="#90CAF9" d="M40 40H12V4h20l8 8z"/><path fill="#E1F5FE" d="M38.5 13H31V5.5z"/><path fill="#1976D2" d="M34 20h-7l2.4 2.4-2.4 2.5-4-4-6.1 6 2.2 2.2 3.9-4 4 4 4.6-4.5L34 27z"/></svg>

<svg xmlns="http://www.w3.org/2000/svg" width="100%" height="100%" viewBox="0 0 48 48"><path fill="#42A5F5" d="M36 44L8 44 8 8 28 8 36 16z"/><path fill="#90CAF9" d="M40 40L12 40 12 4 32 4 40 12z"/><path fill="#E1F5FE" d="M38.5 13L31 13 31 5.5z"/><path fill="#1976D2" d="M34 20L27 20 29.4 22.4 27 24.9 23 20.9 16.9 26.9 19.1 29.1 23 25.1 27 29.1 31.6 24.6 34 27z"/></svg>
